packages/elvis-assets-icons/icons/svg/src/copy.svg

<svg width="24" height="24" viewBox="0 0 24 24" fill="none" xmlns="http://www.w3.org/2000/svg">
<path fill-rule="evenodd" clip-rule="evenodd" d="M1.5 1.97292C1.5 0.891534 2.39843 0 3.50224 0H16.0263C16.4493 0 16.7923 0.34293 16.7923 0.765957V0.951644C16.7923 1.37467 16.4493 1.7176 16.0263 1.7176H3.24692V16.5493C3.24692 16.9723 2.90399 17.3153 2.48096 17.3153H2.26596C1.84293 17.3153 1.5 16.9723 1.5 16.5493V1.97292ZM6.01512 6.4294C6.01512 5.34801 6.91355 4.45648 8.01736 4.45648H20.4339C21.5377 4.45648 22.4362 5.34801 22.4362 6.4294V22.0271C22.4362 23.1085 21.5377 24 20.4339 24H8.01736C6.91355 24 6.01512 23.1085 6.01512 22.0271V6.4294ZM20.6892 6.17408H7.76204V22.2824H20.6892V6.17408Z" fill="black"/>
</svg>

<svg width="24" height="24" fill="none" xmlns="http://www.w3.org/2000/svg"><path fill-rule="evenodd" clip-rule="evenodd" d="M1.5 1.973C1.5.892 2.398 0 3.502 0h12.524c.423 0 .766.343.766.766v.186a.766.766 0 01-.766.766H3.246v14.831a.766.766 0 01-.765.766h-.215a.766.766 0 01-.766-.766V1.973zm4.515 4.456c0-1.081.899-1.973 2.002-1.973h12.417c1.104 0 2.002.892 2.002 1.973v15.598c0 1.081-.898 1.973-2.002 1.973H8.017c-1.103 0-2.002-.892-2.002-1.973V6.43zm14.674-.255H7.762v16.108h12.927V6.174z" fill="#000"/></svg>
